X:338
T:Miss Forbes Farewell to Banff. RH.338
T:Bill Hall’s No2,aka. RH.338
R:rant
S:Rev.R.Harrison’s MS,c1815,Cumbria
N:aka Bill Hall’s No2, by Isaac Cooper.
N:No time signature in MS.
O:England
A:Temple Sowerby,Cumbria
Z:vmp.Simon Wilson. Review PJH, 2008.
M:2/4
L:1/16
Q:1/4=95
K:D
DE|F3A AFED|F2A2 B2d2|A3A AFED|F2E2E2 DD|!
F3A AFED|F2A2 B2d2|A3B AFED|F2D2D2:|!
|:Ac/e/|dcde dcBA|BcdB A3G|FAcA GFED|F2E2E2 AB/d/|!
dcde dcBA|BABc e3B|A3B AGFE|F2D2 D2:|

